icon/pk/frigate.svg

<svg width="48" height="48" fill="none" xmlns="http://www.w3.org/2000/svg"><path d="M11 12v12l13-5 13 5V12H11Z" fill="#2F88FF" stroke="#000" stroke-width="4" stroke-linecap="round" stroke-linejoin="round"/><path d="M19 7v5h10V7a3 3 0 0 0-3-3h-4a3 3 0 0 0-3 3ZM12 44 6 26l18-7 18 7-6 18" stroke="#000" stroke-width="4" stroke-linecap="round" stroke-linejoin="round"/><path d="M4 42s4.663 2 8 2c5 0 7-2 12-2s7 2 12 2c3.337 0 8-2 8-2M24 19v23" stroke="#000" stroke-width="4" stroke-linecap="round" stroke-linejoin="round"/></svg>

<svg viewBox="0 0 48 48" fill="none" xmlns="http://www.w3.org/2000/svg" height="1em" width="1em">
  <path d="M11 12V24L24 19L37 24V12H11Z" fill="#2F88FF" stroke="black" stroke-width="4" stroke-linecap="round" stroke-linejoin="round"/>
  <path d="M19 7V12H29V7C29 5.34315 27.6569 4 26 4H22C20.3431 4 19 5.34315 19 7Z" stroke="black" stroke-width="4" stroke-linecap="round" stroke-linejoin="round"/>
  <path d="M12 44L6 26L24 19L42 26L36 44" stroke="black" stroke-width="4" stroke-linecap="round" stroke-linejoin="round"/>
  <path d="M4 42C4 42 8.66336 44 12 44C17 44 19 42 24 42C29 42 31 44 36 44C39.3366 44 44 42 44 42" stroke="black" stroke-width="4" stroke-linecap="round" stroke-linejoin="round"/>
  <path d="M24 19V42" stroke="black" stroke-width="4" stroke-linecap="round" stroke-linejoin="round"/>
</svg>
